X: 1
T: Peter Pratt's Polka
C: Peter Pratt
R: polka
M: 2/4
A: Orkney, Scotland
Z: 2021 John Chambers <jc:trillian.mit.edu>
S: handout for online BSFC workshop with Jennifer Wrigley 2021-05-17
K: D
f>e |\
d>cd>A F2D2 | G>FG>B A2A2 |\
A>ce>c A>ce>c | d>cd>f e>gf>e |
d>cd>A F2D2 | G>FG>B A2A2 |\
A>ce>c A>ce>c | d2d2 d2- :|
|: d2 |\
B>^AB>c d>ed>B | A>FD>F A2A2 |\
B>^AB>c d>cd>f | e>dc>d e>gf>e |
d>cd>A F2D2 | G>FG>B A2A2 |\
A>ce>c A>ce>c | d2d2 d2 :|
